X: 7
T: Old Favourite, The
Z: Sean Perry
S: https://thesession.org/tunes/56#setting50907
R: jig
M: 6/8
L: 1/8
K: Gmaj
|:~B3 BAB|dBA G2 B|ded d2 B|ded B2 A|
~B3 BAB|dBA G2B|ded cBA|1 G3 G2 A:|2 G3 GBd||
|:~g3 ~f3|e/f/ge d2 B|ded d2 B|ded B2 d|~g3 ~f3|
e/f/ge d2 B|1 ded cBA|G3 GBd:|2 dge dge|dge dBA||

